X:1
T:Title
%%score 1 2
L:1/8
Q:1/4=75
M:6/8
K:Eb
V:1 treble nm="Strings 1, Treble"
V:2 bass nm="Strings 1, Bass"
V:1
 z3 z2 E | G2 _G =G2 A | G2 F E2 G | B2 =A B2 c | B2 A G2 E | [DF]3 [DA]3 | [EG]3- [EG]2 E | %7
w: 1.~Oh,~|will~ you~ count~ the~|cost~ to day?~ Oh,~|will~ you~ leave~ your~|sin ful~ way?~ I~|will,~ I~|will.~ * Oh,~|
 G2 _G =G2 A | G2 F E2 G | B2 =A B2 c | B2 A G2 E | [DF]3 [Ac]3 | [GB]3- [GB]2 [GB] | %13
w: will~ you~ bear~ the~|cross~ for~ Him?~ Oh,~|will~ you~ start~ the~|prize~ to~ win?~ I~|will,~ I~|will.~ * *|
 [FB]2 [GB] [AB]2 [AB] | [GB]2 [FA] [EG]2 [GB] | [Ge]2 [GB] [Ac]2 [Ae] | [Ge]2 [Ec] [EB]2 E | %17
w: ||||
 [EB]3 B,3 | [B,E]6 |] %19
w: ||
V:2
 z3 z2 G, | B,2 =A, B,2 C | B,2 A, G,2 E, | G,2 _G, =G,2 A, | G,2 F, E,2 [E,G,] | %5
 [B,,B,]3 [B,,B,]3 | [E,B,]3- [E,B,]2 G, | B,2 =A, B,2 C | B,2 A, G,2 E, | G,2 _G, =G,2 A, | %10
 G,2 F, E,2 [E,G,] | [B,,B,]3 [B,,D]3 | [E,E]3- [E,E]2 [E,E] | [B,,D]2 [B,,E] [B,,F]2 [B,,D] | %14
 [E,E]2 [E,B,] [E,B,]2 [E,B,] | [E,B,]2 [E,E] [A,E]2 [A,C] | [E,B,]2 [E,A,] [E,G,]2 [E,G,] | %17
 [B,,F,]3 [B,,A,]3 | [E,G,]6 |] %19

